X: 30394
T: HOPSER, or HOP WALTZ
C:
%R: polka, march
B: Elias Howe "The Musician's Companion" Part 3 1844 p.39 #4
S: http://imslp.org/wiki/The_Musician's_Companion_(Howe,_Elias)
S: https://archive.org/stream/firstthirdpartof03howe/#page/66/mode/1up
Z: 2016 John Chambers <jc:trillian.mit.edu>
M: 2/4
L: 1/8
K: G
% - - - - - - - - - - - - - - - - - - - - - - - - -
B/A/ |\
(GB)(Bd) | (dg).g.f | (ag).e.c | (ed)d B/A/ |\
(GB)(Bd) | (dg)(ec) | Bd FA | (AG)G :|
(A/B/) |\
(Ad)dA | (Aa)af | {ef}.e.d.e.f | (d/e/f/e/) .d A/B/ |\
(Ad).d.A | (Aa).a.f | {ef}edef | d2 "^D.C."z :|
% - - - - - - - - - - - - - - - - - - - - - - - - -


